X:19
T:Crowley's #1 (reel) 
F:file ID fs.3/019crowl_1
Z:bill@capeirish.com
B:FS3.16a
M:4/4
L:1/8
Q:180
R:Reel
K:D
B|A3d B2dB|AD (3FED AD (3FED |A3d B3c|dfeg fdd :|
e|f3a g2fg|eAcA eAcA|fefa g2fg|afge fdd :|

